X:1
T:Deveron Side
T:Deveron Side
T:Peter Milne
C:Peter Milne
L:1/8
M:4/4
K:G
V:1 treble 
V:1
 f | e2 ce f2 df | ecac dBBf | e2 ce f2 df | ecae cAA :| d | c(AGA) FAEA | G(AEA) cBBd | %8
 c(AGA) FAEA | GABd cAAd | c(AGA) FAEA | G(AEA) cBBd | c(AGA) GABc | dfed cAA || %14

